icons/square-24.svg

<svg width="24" height="24" viewBox="0 0 24 24" fill="none" xmlns="http://www.w3.org/2000/svg">
<path fill-rule="evenodd" clip-rule="evenodd" d="M6 7.75C6 6.7835 6.7835 6 7.75 6H16.25C17.2165 6 18 6.7835 18 7.75V16.25C18 17.2165 17.2165 18 16.25 18H7.75C6.7835 18 6 17.2165 6 16.25V7.75ZM7.75 7.5C7.61193 7.5 7.5 7.61193 7.5 7.75V16.25C7.5 16.3881 7.61193 16.5 7.75 16.5H16.25C16.3881 16.5 16.5 16.3881 16.5 16.25V7.75C16.5 7.61193 16.3881 7.5 16.25 7.5H7.75Z" fill="black"/>
</svg>

<svg xmlns="http://www.w3.org/2000/svg" width="24" height="24" viewBox="0 0 24 24"><path fill-rule="evenodd" d="M6 7.75C6 6.784 6.784 6 7.75 6h8.5c.966 0 1.75.784 1.75 1.75v8.5A1.75 1.75 0 0116.25 18h-8.5A1.75 1.75 0 016 16.25v-8.5zm1.75-.25a.25.25 0 00-.25.25v8.5c0 .138.112.25.25.25h8.5a.25.25 0 00.25-.25v-8.5a.25.25 0 00-.25-.25h-8.5z"/></svg>
